assets/icons/qvision/repeat_on.svg

<svg xmlns="http://www.w3.org/2000/svg" height="24" viewBox="0 0 24 24" width="24"><path d="M0 0h24v24H0V0z" fill="none"/><path d="M21 1H3c-1.1 0-2 .9-2 2v18c0 1.1.9 2 2 2h18c1.1 0 2-.9 2-2V3c0-1.1-.9-2-2-2zM7 7h10v3l4-4-4-4v3H5v6h2V7zm10 10H7v-3l-4 4 4 4v-3h12v-6h-2v4z" fill-rule="evenodd"/></svg>

<svg width="24" height="24" viewBox="0 0 24 24" fill="none" xmlns="http://www.w3.org/2000/svg">
<g clip-path="url(#clip0_147_1594)">
<path fill-rule="evenodd" clip-rule="evenodd" d="M21 1H3C1.9 1 1 1.9 1 3V21C1 22.1 1.9 23 3 23H21C22.1 23 23 22.1 23 21V3C23 1.9 22.1 1 21 1ZM7 7H17V10L21 6L17 2V5H5V11H7V7ZM17 17H7V14L3 18L7 22V19H19V13H17V17Z" fill="#323232"/>
</g>
<defs>
<clipPath id="clip0_147_1594">
<rect width="24" height="24" fill="white"/>
</clipPath>
</defs>
</svg>
